X:1322
L:1/8
Q:1/4=120
M:4/4
K:G
"^Slow" G>A | B3 g (d<B) (TA>G) |{A} B2 d>e d2 A>B | c3 e (d<B) (TA>G) | TB2 (AB) TA2 (GA) | 
 (Bd)(eg) (d<B) (TA>G) |{A} B2 g>a g2 (Bc) | d>edB (cB)(TAG) | E2 (GA) G2 :: (d>e) | 
 g>aba (ge)(dB) | d2 (ga) g2 (AB) | c>deg (d<B) (TA>G) |{GA} B2 (AB) A2 (GA) | (BA)BG (EGA)B | 
 (cBc)d edef | (gfg)a (bab)d | e2 (g>a) g2 :| (G>A) | G>g (Tg3/2f/4g/4) (d<B) (TA>G) | 
 G>g (Tg3/2f/4g/4) d>g (Tg3/2f/4g/4) | c>g (Tg3/2f/4g/4) (3Bge (3dBG |{GA} B2 (A>B) A2 (G>A) | 
 (B/d/e/f/) (g/e/d/c/) d(c/B/) (c/B/)(A/G/) |{ga} (b>a)(Ta>g) Tg3 f | (3egf (3edc (d<B) (TA>G) | 
 E2 G>A G2 :: d>e | (3gdb g2 (3bag (3egB | (3dgb (3agf (3gec (3dBG | (3cBe (3edg (3gfa (3aAc | 
 (3Bge (3dBA TA2 (G>A) | (B/A/B/c/) BG (EG)(AB) | (c/A/c/)f/ (d/B/d/)g/ (e/c/e/)a/ f/d/e/f/ | 
 (g/f/)e (c'/b/)a (bg) Ta>g | e2 (g>a) g2 :|[M:6/8]"^Giga""^Brisk" G | (B/c/d)e dBG | Bdg dBG | 
 (c/d/e)c Bdg | fAA TA2 G | (B/c/d)e dBG | (g/a/b)a gfe | d(e/f/g) dBG | EGG G2 :: (B/c/) | 
 d(B/c/d/B/) dBg | d(B/c/d/B/) gdB | (c/d/e)c dBG | aAA A2 c | (B/c/d)G ceA | (d/e/f)B egc | 
 (f/g/a)d c'ad' | bgg g2 :|

